!! 00000] TT[WS
!!!OTL: Yixin xiaohuahua shuobuwan
!!!ARE: Asia, China, Shanxi Hequ
!! Ethnic Group: Han
!! WII, 26 (1)
!!!SCT: J0433
!!!YEM: Copyright 1995, estate of Helmut Schaffrath.
**kern
*ICvox
*Ivox
*M2/4
*k[f#c#]
*D:
{8b
8b
8dd
8ff#
=1
8a
8f#
8e
8d
=2
4b
8dd
8ff#
=3
2ee}
=4
{8b
8b
8dd
8ff#
=5
8a
8f#
8e
8d
=6
8b
8b
8dd
8ff#
=7
2a}
==
!!!AGN: Shange, Shanqu. Qingge
!!!ONB: ESAC (Essen Associative Code) Database: CHINA
!!!AMT: simple duple
!!!AIN: vox
!!!EED: Helmut Schaffrath
!!!EEV: 1.0
*-
